X:30
T:Jenny Dang the Weaver
R:reel
C:traditional
B:Bremner's Collections, 1757
O:18th century Scotland
N:melodic code 3H555 653H2H (3555 6532)
Z:Paul Stewart Cranford (P.S.C.), <http://www.cranfordpub.com>
L:1/8
Q:300
M:C|
K:D
g|fA A/A/A ABAB|dA A/A/A Tf2 ed|fB B/B/B BABd|ABde Tf2 e:|
|:f|defd efge|defd Te2 dB|defd eBgB aA A/A/A Tf2 e:|
